assets/img/braze_icons/divider.svg

<svg fill="none" height="24" viewBox="0 0 24 24" width="24" xmlns="http://www.w3.org/2000/svg"><g clip-rule="evenodd" fill="#801ed7" fill-rule="evenodd"><path d="m2 12c0-.5522.44772-1 1-1h.01c.55228 0 1 .4478 1 1 0 .5523-.44772 1-1 1h-.01c-.55228 0-1-.4477-1-1z"/><path d="m6.5 12c0-.5522.44772-1 1-1h.01c.55228 0 1 .4478 1 1 0 .5523-.44772 1-1 1h-.01c-.55228 0-1-.4477-1-1z"/><path d="m15.5 12c0-.5522.4477-1 1-1h.01c.5523 0 1 .4478 1 1 0 .5523-.4477 1-1 1h-.01c-.5523 0-1-.4477-1-1z"/><path d="m11 12c0-.5522.4477-1 1-1h.01c.5523 0 1 .4478 1 1 0 .5523-.4477 1-1 1h-.01c-.5523 0-1-.4477-1-1z"/><path d="m20 12c0-.5522.4477-1 1-1h.01c.5523 0 1 .4478 1 1 0 .5523-.4477 1-1 1h-.01c-.5523 0-1-.4477-1-1z"/><path d="m19.7342 1.9999c.2348-.00071.5226-.00159.7834.06829.6902.18494 1.2293.72403 1.4143 1.41422.0698.26079.069.5486.0682.78342-.0015.50241.0289 1.02093-.1023 1.51067-.2774 1.03528-1.0861 1.84392-2.1213 2.12132-.3856.1033-.8236.10284-1.3313.1023-4.2968-.00455-8.59361-.00455-12.89038 0-.50772.00054-.94575.001-1.33128-.1023-1.03527-.2774-1.84392-1.08604-2.12132-2.12132-.13122-.48974-.10083-1.00826-.10236-1.51067-.00071-.23482-.00159-.52263.06829-.78342.18493-.69019.72403-1.22928 1.41421-1.41422.26079-.06988.5486-.069.78343-.06828 5.15597.0157 10.31241.0157 15.46841-.00001z"/><path d="m19.7342 22.0001c.2348.0008.5226.0016.7834-.0682.6902-.185 1.2293-.7241 1.4142-1.4143.0699-.2608.069-.5486.0683-.7834-.0015-.5024.0289-1.0209-.1023-1.5107-.2774-1.0352-1.0861-1.8439-2.1214-2.1213-.3855-.1033-.8235-.1028-1.3312-.1023-4.2968.0046-8.59362.0046-12.89039 0-.50772-.0005-.94575-.001-1.33128.1023-1.03527.2774-1.84392 1.0861-2.12132 2.1213-.13122.4898-.10083 1.0083-.10236 1.5107-.00071.2348-.00159.5226.06829.7834.18493.6902.72403 1.2293 1.41421 1.4143.26079.0698.5486.069.78343.0682 5.15597-.0157 10.31242-.0157 15.46842 0z"/></g></svg>

<svg width="24" height="24" viewBox="0 0 24 24" fill="none" xmlns="http://www.w3.org/2000/svg">
<path fill-rule="evenodd" clip-rule="evenodd" d="M2 12C2 11.4478 2.44772 11 3 11H3.01C3.56228 11 4.01 11.4478 4.01 12C4.01 12.5523 3.56228 13 3.01 13H3C2.44772 13 2 12.5523 2 12Z" fill="#801ED7"/>
<path fill-rule="evenodd" clip-rule="evenodd" d="M6.5 12C6.5 11.4478 6.94772 11 7.5 11H7.51C8.06228 11 8.51 11.4478 8.51 12C8.51 12.5523 8.06228 13 7.51 13H7.5C6.94772 13 6.5 12.5523 6.5 12Z" fill="#801ED7"/>
<path fill-rule="evenodd" clip-rule="evenodd" d="M15.5 12C15.5 11.4478 15.9477 11 16.5 11H16.51C17.0623 11 17.51 11.4478 17.51 12C17.51 12.5523 17.0623 13 16.51 13H16.5C15.9477 13 15.5 12.5523 15.5 12Z" fill="#801ED7"/>
<path fill-rule="evenodd" clip-rule="evenodd" d="M11 12C11 11.4478 11.4477 11 12 11H12.01C12.5623 11 13.01 11.4478 13.01 12C13.01 12.5523 12.5623 13 12.01 13H12C11.4477 13 11 12.5523 11 12Z" fill="#801ED7"/>
<path fill-rule="evenodd" clip-rule="evenodd" d="M20 12C20 11.4478 20.4477 11 21 11H21.01C21.5623 11 22.01 11.4478 22.01 12C22.01 12.5523 21.5623 13 21.01 13H21C20.4477 13 20 12.5523 20 12Z" fill="#801ED7"/>
<path fill-rule="evenodd" clip-rule="evenodd" d="M19.7342 1.9999C19.969 1.99919 20.2568 1.99831 20.5176 2.06819C21.2078 2.25313 21.7469 2.79222 21.9319 3.48241C22.0017 3.7432 22.0009 4.03101 22.0001 4.26583C21.9986 4.76824 22.029 5.28676 21.8978 5.7765C21.6204 6.81178 20.8117 7.62042 19.7765 7.89782C19.3909 8.00112 18.9529 8.00066 18.4452 8.00012C14.1484 7.99557 9.85159 7.99557 5.55482 8.00012C5.0471 8.00066 4.60907 8.00112 4.22354 7.89782C3.18827 7.62042 2.37962 6.81178 2.10222 5.7765C1.971 5.28676 2.00139 4.76824 1.99986 4.26583C1.99915 4.03101 1.99827 3.7432 2.06815 3.48241C2.25308 2.79222 2.79218 2.25313 3.48236 2.06819C3.74315 1.99831 4.03096 1.99919 4.26579 1.99991C9.42176 2.01561 14.5782 2.01561 19.7342 1.9999Z" fill="#801ED7"/>
<path fill-rule="evenodd" clip-rule="evenodd" d="M19.7342 22.0001C19.969 22.0009 20.2568 22.0017 20.5176 21.9319C21.2078 21.7469 21.7469 21.2078 21.9318 20.5176C22.0017 20.2568 22.0008 19.969 22.0001 19.7342C21.9986 19.2318 22.029 18.7133 21.8978 18.2235C21.6204 17.1883 20.8117 16.3796 19.7764 16.1022C19.3909 15.9989 18.9529 15.9994 18.4452 15.9999C14.1484 16.0045 9.85158 16.0045 5.55481 15.9999C5.04709 15.9994 4.60906 15.9989 4.22353 16.1022C3.18826 16.3796 2.37961 17.1883 2.10221 18.2235C1.97099 18.7133 2.00138 19.2318 1.99985 19.7342C1.99914 19.969 1.99826 20.2568 2.06814 20.5176C2.25307 21.2078 2.79217 21.7469 3.48235 21.9319C3.74314 22.0017 4.03095 22.0009 4.26578 22.0001C9.42175 21.9844 14.5782 21.9844 19.7342 22.0001Z" fill="#801ED7"/>
</svg>
